localPackages/DesignSystem/Sources/DesignSystem/Resources/Assets.xcassets/IconSet/ic-at.imageset/ic-at.svg

<svg width="24" height="24" viewBox="0 0 24 24" fill="none" xmlns="http://www.w3.org/2000/svg">
<g id="ic-at">
<path id="Icon" fill-rule="evenodd" clip-rule="evenodd" d="M3 12C3 7.02944 7.02944 3 12 3C16.9706 3 21 7.02944 21 12V12.75C21 14.4118 19.6707 15.75 18.0187 15.75C16.3346 15.75 15.1738 14.4357 15.4719 13.0272C15.5312 12.8326 15.5797 12.6372 15.6176 12.442C15.9811 11.0582 16.506 9.50443 17.1964 7.77854C17.3502 7.39396 17.1631 6.95748 16.7785 6.80364C16.394 6.64981 15.9575 6.83687 15.8036 7.22146C15.5583 7.83491 15.3322 8.4299 15.1255 9.00633C14.7773 8.38784 14.2808 7.86588 13.6471 7.5C11.4948 6.25736 8.57475 7.2856 7.125 9.79663C5.67525 12.3077 6.2448 15.3506 8.39711 16.5933C10.2879 17.6849 12.7711 17.024 14.3296 15.145C15.0134 16.4206 16.4645 17.25 18.0187 17.25C20.5089 17.25 22.5 15.2304 22.5 12.75V12C22.5 6.20101 17.799 1.5 12 1.5C6.20101 1.5 1.5 6.20101 1.5 12C1.5 17.799 6.20101 22.5 12 22.5C13.4324 22.5 14.7996 22.2128 16.0458 21.692C16.428 21.5323 16.6083 21.093 16.4486 20.7108C16.2889 20.3286 15.8496 20.1483 15.4674 20.308C14.4012 20.7535 13.2304 21 12 21C7.02944 21 3 16.9706 3 12ZM14.1733 12.0365C14.1215 12.2331 14.0726 12.427 14.0267 12.618C14.0215 12.6398 14.0164 12.6615 14.0116 12.6832C13.9159 12.9692 13.7866 13.2584 13.6202 13.5466C12.472 15.5353 10.4013 16.0184 9.14711 15.2942C7.89289 14.5701 7.27587 12.5353 8.42404 10.5466C9.5722 8.55795 11.6429 8.07491 12.8971 8.79904C13.831 9.33822 14.4116 10.6041 14.1733 12.0365Z" fill="#0F0F0F"/>
</g>
</svg>

<svg xmlns="http://www.w3.org/2000/svg" width="24" height="24" viewBox="0 0 24 24">
  <g class="ic-at">
    <path fill-rule="evenodd" d="M3 12a9 9 0 0 1 18 0v.75c0 1.662-1.33 3-2.981 3-1.684 0-2.845-1.314-2.547-2.723.06-.194.108-.39.146-.585.363-1.384.888-2.938 1.578-4.663a.75.75 0 0 0-1.392-.558 52.967 52.967 0 0 0-.678 1.785 3.972 3.972 0 0 0-1.48-1.506c-2.152-1.243-5.072-.214-6.522 2.297-1.45 2.51-.88 5.554 1.272 6.796 1.89 1.092 4.374.431 5.933-1.448.683 1.276 2.135 2.105 3.689 2.105 2.49 0 4.481-2.02 4.481-4.5V12c0-5.799-4.701-10.5-10.5-10.5S1.5 6.201 1.5 12 6.201 22.5 12 22.5c1.432 0 2.8-.287 4.046-.808a.75.75 0 1 0-.579-1.384A8.97 8.97 0 0 1 12 21a9 9 0 0 1-9-9Zm11.173.037a26.944 26.944 0 0 0-.161.646 4.728 4.728 0 0 1-.392.864c-1.148 1.988-3.219 2.471-4.473 1.747s-1.871-2.759-.723-4.747c1.148-1.99 3.219-2.472 4.473-1.748.934.54 1.515 1.805 1.276 3.238Z" class="Icon"/>
  </g>
</svg>
